X:1
T:Es spricht der Unweisen
T:Balthasar Resinarius
T:Source : DDT 34---Leipzich---Breitkopf & Härtel---J.Wolf---1908. First print : Newe Deudsche Geistliche Gesenge---Wittemberg---G.Rhau---1544. Editor : André Vierendeels (21/07/17).
T:Notes : Original Clefs : C1, C3, C4, F4 Original note values have been halved Editorial accidentals above the staff 
T:Es spricht der Unweisen
T:©
T:©
T:©
C:Balthasar Resinarius
Z:©
%%score [ 1 2 3 4 ]
L:1/8
Q:1/4=120
M:2/2
K:F
V:1 treble nm="Soprano" snm="S"
V:2 treble nm="Alto" snm="A"
V:3 treble-8 nm="Tenor" snm="T"
V:4 bass nm="Bass" snm="B"
V:1
 z4 B4 | c4 A4 | F4 B4 | G2 c3 BAG | A4 B4 | z4 z2 F2 | B4 c4 | A4 d4 | c4 F4 | z2 G2 cB AG | %10
w: Es|spricht der|Un- wei-|sen Mund _ _ _|_ wohl:|Den|rech- ten|Gott wir|mei- nen,|den rech- * ten _|
w: Doch|ist ihr|Herz un-|glau- bens- * * *|* voll,|mit|Tat sie|ihn ver-|nei- nen,|mit Tat _ sie _|
 F2 B3 A AG |1 B8 :|2 B4 z2 B2 || c2 c2 d3 c | B2 G2 cBAG | F4 G2 G2- | GF F4 E2 | F4 z2 G2 | %18
w: Gott wir _ mei- *|nen|* Ihr|We- sen ist _|_ ver- der- * * *|[bet, ver- der-|* ] bet _|zwar, für|
w: ihn ver- * nei- *||nen. *||||||
 ABcA (3B2 c2 d2 | c2 c2 F4 | z4 c4 | A2 A2 B2 B2 | c4 F4 | z2 G2 cBAG | F2 B3 A AG | B8 |] %26
w: Gott _ _ _ ist es ein|Gre- vel gar;|Es|tut ihr kei- ner|kein Gut,|es tut _ _ _|ihr kei- ner kein _|Gut.|
w: ||||||||
V:2
 F4 G4 | E4 C4 | F4 D2 G2- | GFED E4 | F4 z4 | z2 C2 F4 | G4 E4 | A4 G4 | C4 z2 D2 | %9
w: Es spricht|der Un-|wei- sen Mund|_ _ _ _ _|wohl:|Den rech-|ten Gott|wir mei-|nen, den|
w: Doch ist|ihr Herz|un- glau- bens-||voll,|mit Tat|sie ihn|ver- nei-|nen, mit|
"^b" GF ED C2 F2- |"^b""^b" FE ED F4 |1 z8 :|2 z2 F2 G2 G2 || A3 G F2 D2 | GFED C4 | D2 D3 C C2- | %16
w: rech- * ten _ Gott wir|_ _ mei- * nen.||Ihr We- sen|ist _ _ ver-|der- * * * [bet,|ver- der- ] bet-|
w: Tat _ sie _ ihn ver-|* * nei- * nen.||||||
 C2 B,2 C4 | z2 D2 EFGE | (3F2 G2 A2 G2 G2 | C4 z4 | G4 E2 E2 | F2 F2 G4 | C4 z2 D2 | %23
w: * * zwar,|für Gott _ _ _|ist es ein Gre- vel|gar;|Es tut ihr|kei- ner kein|Gut, es|
w: |||||||
"^b" GFED C2 F2- |"^b""^b" FE ED F4- | F8 |] %26
w: tut _ _ _ _ kei-|* ner kein _ Gut.|_|
w: |||
V:3
 z8 | z8 | z4 B4 | c4 A4 | F4 B4 | c4 d4 | B4 z4 | z2 F2 B4 | c4 d4 | _e4 f3 e | dc B2 c4 |1 B8 :|2 %12
w: ||Es|spricht der|Un- wei-|sen Mund|wohl:|Den rech-|ten Gott|wir mei- *||nen.|
w: ||Doch|ist ihr|Herz un-|glau- bens-|voll,|mit Tat|sie ihn|ver nei- *|||
 B4 z4 || z4 z2 B2 | G4 A4 | B4 G4 | F4 G4 | F4 z4 | z2 G2 B4 | c4 d4 | _edcB c2 c2 | d4 z4 | %22
w: |Ihr|We- sen|ist ver-|der- bet|zwar,|für Gott|ist es|ein _ _ _ Gre- vel|gar;|
w: nen.||||||||||
 z2 c2 d4 | _e4 f3 e | dc B2 c4 | B8 |] %26
w: Es tut|ihr kei- *|* * ner kein|Gut.|
w: ||||
V:4
 z8 | z8 | F,4 G,4 | E,4 C,4 | F,4 G,4 | A,4 F,4 | z4 z2 C,2 | F,4 G,4 | A,4 B,4 | C3 B, A,G, F,2 | %10
w: ||Es spricht|der Un-|wei- sen|Mund wohl:|Den|rech- ten|Gott wir|mei- * * * *|
w: ||Doch ist|ihr Herz|un- glau-|bens- voll,|mit|Tat sie|ihn ver-|ne- * * * *|
 G,4 F,4 |1 z8 :|2 z8 || z2 F,2 D,4 | E,4 F,4 | D,4 C,4 | D,4 C,4 | z4 z2 C,2 | F,4 G,4 | %19
w: * nen.|||Ihr We-|sen ist|ver- der-|bet zwar,|für|Gott ist|
w: * nen.|||||||||
 A,4 B,A,G,F, | G,2 G,2 A,4 | z4 z2 G,2 | A,4 B,4 | C3 B, A,G, F,2 | G,4 F,4 | B,,8 |] %26
w: es ein _ _ _|Gre- vel gar;|Es|tut ihr|kei- * * * *|ner kein|Gut.|
w: |||||||

